src/home/img/user-created-groups.svg

<svg height="76" viewBox="0 0 76 76" width="76" xmlns="http://www.w3.org/2000/svg" xmlns:xlink="http://www.w3.org/1999/xlink"><linearGradient id="a" x1="50%" x2="50%" y1="0%" y2="100%"><stop offset="0" stop-color="#3f6abc"/><stop offset="1" stop-color="#1851be"/></linearGradient><filter id="b" height="107.4%" width="107.4%" x="-3.7%" y="-3.7%"><feGaussianBlur in="SourceGraphic" stdDeviation=".65"/></filter><radialGradient id="c" cx="45.734%" cy="0%" gradientTransform="matrix(0 1 -.78461 0 .457 -.457)" r="132.437%"><stop offset="0" stop-color="#fff"/><stop offset="1" stop-color="#aec3eb"/></radialGradient><filter id="d" height="107.6%" width="106%" x="-3%" y="-3.8%"><feGaussianBlur in="SourceGraphic" stdDeviation=".65"/></filter><mask id="e" fill="#fff"><path d="m.5 13.84c0-7.367 5.973-13.34 13.34-13.34h48.32c7.367 0 13.34 5.973 13.34 13.34v48.32c0 7.367-5.973 13.34-13.34 13.34h-48.32c-7.367 0-13.34-5.973-13.34-13.34z" fill="#fff" fill-rule="evenodd"/></mask><mask id="f" fill="#fff"><path d="m.5 13.84c0-7.367 5.973-13.34 13.34-13.34h48.32c7.367 0 13.34 5.973 13.34 13.34v48.32c0 7.367-5.973 13.34-13.34 13.34h-48.32c-7.367 0-13.34-5.973-13.34-13.34z" fill="#fff" fill-rule="evenodd"/></mask><g fill="none" fill-rule="evenodd"><path d="m.5 13.84c0-7.367 5.973-13.34 13.34-13.34h48.32c7.367 0 13.34 5.973 13.34 13.34v48.32c0 7.367-5.973 13.34-13.34 13.34h-48.32c-7.367 0-13.34-5.973-13.34-13.34z" mask="url(#e)"/><path d="m.5 13.84c0-7.367 5.973-13.34 13.34-13.34h48.32c7.367 0 13.34 5.973 13.34 13.34v48.32c0 7.367-5.973 13.34-13.34 13.34h-48.32c-7.367 0-13.34-5.973-13.34-13.34z"/><path d="m.5 13.84c0-7.367 5.973-13.34 13.34-13.34h48.32c7.367 0 13.34 5.973 13.34 13.34v48.32c0 7.367-5.973 13.34-13.34 13.34h-48.32c-7.367 0-13.34-5.973-13.34-13.34z"/><rect height="75" rx="15" style="fill-rule:nonzero;stroke:#fff;stroke-opacity:.01;stroke-width:1.68;fill:url(#a);filter:url(#b);mask:url(#f)" width="75" x="1" y="1"/><rect height="75" rx="15" style="fill-rule:nonzero;stroke:#fff;stroke-opacity:.01;stroke-width:1.68;fill:url(#a);mask:url(#f)" width="75" x="1" y="1"/><g fill="url(#c)" transform="translate(6 13)"><path d="m23.0645161 28.1020408c4.5158393 0 8.4263573 2.577428 10.3190987 6.3319424.3125225-.0455859.6323423-.0735552.9567866-.0832278l.2563728-.0038166h8.3870968c3.1608941 0 5.9140028 1.7363296 7.3435392 4.3010559.3741097-.0752479.760132-.1207592 1.1549124-.1338492l.2381075-.0039414h6.639785c3.5867017 0 6.51018 2.6753423 6.6355928 6.0208905l.0041921.2240074v3.122449c0 1.6647229-1.3859268 3.0256289-3.1315336 3.1175051l-.1883589.0049439h-13.2795699c-.1995299 0-.3949548-.0165648-.5848045-.0483117-.1389987.0213103-.2799933.0356787-.4227905.0428899l-.2155232.0054218h-16.7741936c-.2452457 0-.4855819-.0209121-.7192975-.0610376-.2776814.0397272-.5629807.0610376-.8532831.0610376h-23.06451617c-3.18398437 0-5.76612903-2.5634981-5.76612903-5.7244898v-5.7244898c0-6.3237723 5.16428931-11.4489796 11.5322581-11.4489796zm31.9758065-7.2857143c3.7639554 0 6.8145161 2.7955676 6.8145161 6.244898 0 3.4493303-3.0505607 6.2448979-6.8145161 6.2448979-3.7628906 0-6.8145161-2.7955676-6.8145161-6.2448979 0-3.4493304 3.0516255-6.244898 6.8145161-6.244898zm-16.25-7.2857143c4.6325605 0 8.3870968 3.7274235 8.3870968 8.3265307 0 4.5991071-3.7545363 8.3265306-8.3870968 8.3265306-4.63125 0-8.3870968-3.7274235-8.3870968-8.3265306 0-4.5991072 3.7558468-8.3265307 8.3870968-8.3265307zm-20.967742-13.5306122c6.3697707 0 11.5322581 5.12520727 11.5322581 11.4489796 0 6.3237723-5.1624874 11.4489796-11.5322581 11.4489796-6.3679687 0-11.53225802-5.1252073-11.53225802-11.4489796 0-6.32377233 5.16428932-11.4489796 11.53225802-11.4489796z" filter="url(#d)"/><path d="m23.0645161 28.1020408c4.5158393 0 8.4263573 2.577428 10.3190987 6.3319424.3125225-.0455859.6323423-.0735552.9567866-.0832278l.2563728-.0038166h8.3870968c3.1608941 0 5.9140028 1.7363296 7.3435392 4.3010559.3741097-.0752479.760132-.1207592 1.1549124-.1338492l.2381075-.0039414h6.639785c3.5867017 0 6.51018 2.6753423 6.6355928 6.0208905l.0041921.2240074v3.122449c0 1.6647229-1.3859268 3.0256289-3.1315336 3.1175051l-.1883589.0049439h-13.2795699c-.1995299 0-.3949548-.0165648-.5848045-.0483117-.1389987.0213103-.2799933.0356787-.4227905.0428899l-.2155232.0054218h-16.7741936c-.2452457 0-.4855819-.0209121-.7192975-.0610376-.2776814.0397272-.5629807.0610376-.8532831.0610376h-23.06451617c-3.18398437 0-5.76612903-2.5634981-5.76612903-5.7244898v-5.7244898c0-6.3237723 5.16428931-11.4489796 11.5322581-11.4489796zm31.9758065-7.2857143c3.7639554 0 6.8145161 2.7955676 6.8145161 6.244898 0 3.4493303-3.0505607 6.2448979-6.8145161 6.2448979-3.7628906 0-6.8145161-2.7955676-6.8145161-6.2448979 0-3.4493304 3.0516255-6.244898 6.8145161-6.244898zm-16.25-7.2857143c4.6325605 0 8.3870968 3.7274235 8.3870968 8.3265307 0 4.5991071-3.7545363 8.3265306-8.3870968 8.3265306-4.63125 0-8.3870968-3.7274235-8.3870968-8.3265306 0-4.5991072 3.7558468-8.3265307 8.3870968-8.3265307zm-20.967742-13.5306122c6.3697707 0 11.5322581 5.12520727 11.5322581 11.4489796 0 6.3237723-5.1624874 11.4489796-11.5322581 11.4489796-6.3679687 0-11.53225802-5.1252073-11.53225802-11.4489796 0-6.32377233 5.16428932-11.4489796 11.53225802-11.4489796z"/></g></g></svg>

<svg xmlns="http://www.w3.org/2000/svg" xmlns:xlink="http://www.w3.org/1999/xlink" width="76" height="76" viewBox="0 0 76 76">
  <defs>
    <path id="user-created-groups-a" d="M0.5,13.84 C0.5,6.473 6.473,0.5 13.84,0.5 L62.16,0.5 C69.527,0.5 75.5,6.473 75.5,13.84 L75.5,62.16 C75.5,69.527 69.527,75.5 62.16,75.5 L13.84,75.5 C6.473,75.5 0.5,69.527 0.5,62.16 L0.5,13.84 Z"/>
    <path id="user-created-groups-c" d="M0.5,13.84 C0.5,6.473 6.473,0.5 13.84,0.5 L62.16,0.5 C69.527,0.5 75.5,6.473 75.5,13.84 L75.5,62.16 C75.5,69.527 69.527,75.5 62.16,75.5 L13.84,75.5 C6.473,75.5 0.5,69.527 0.5,62.16 L0.5,13.84 Z"/>
    <linearGradient id="user-created-groups-d" x1="50%" x2="50%" y1="0%" y2="100%">
      <stop offset="0%" stop-color="#3F6ABC"/>
      <stop offset="100%" stop-color="#1851BE"/>
    </linearGradient>
    <filter id="user-created-groups-e" width="107.4%" height="107.4%" x="-3.7%" y="-3.7%" filterUnits="objectBoundingBox">
      <feGaussianBlur in="SourceGraphic" stdDeviation=".65"/>
    </filter>
    <radialGradient id="user-created-groups-g" cx="45.734%" cy="0%" r="132.437%" fx="45.734%" fy="0%" gradientTransform="matrix(0 1 -.78461 0 .457 -.457)">
      <stop offset="0%" stop-color="#FFF"/>
      <stop offset="100%" stop-color="#AEC3EB"/>
    </radialGradient>
    <filter id="user-created-groups-h" width="106%" height="107.6%" x="-3%" y="-3.8%" filterUnits="objectBoundingBox">
      <feGaussianBlur in="SourceGraphic" stdDeviation=".65"/>
    </filter>
  </defs>
  <g fill="none" fill-rule="evenodd">
    <mask id="user-created-groups-b" fill="#fff">
      <use xlink:href="#user-created-groups-a"/>
    </mask>
    <path d="M0.5,13.84 C0.5,6.473 6.473,0.5 13.84,0.5 L62.16,0.5 C69.527,0.5 75.5,6.473 75.5,13.84 L75.5,62.16 C75.5,69.527 69.527,75.5 62.16,75.5 L13.84,75.5 C6.473,75.5 0.5,69.527 0.5,62.16 L0.5,13.84 Z" mask="url(#user-created-groups-b)"/>
    <path d="M0.5,13.84 C0.5,6.473 6.473,0.5 13.84,0.5 L62.16,0.5 C69.527,0.5 75.5,6.473 75.5,13.84 L75.5,62.16 C75.5,69.527 69.527,75.5 62.16,75.5 L13.84,75.5 C6.473,75.5 0.5,69.527 0.5,62.16 L0.5,13.84 Z"/>
    <path d="M0.5,13.84 C0.5,6.473 6.473,0.5 13.84,0.5 L62.16,0.5 C69.527,0.5 75.5,6.473 75.5,13.84 L75.5,62.16 C75.5,69.527 69.527,75.5 62.16,75.5 L13.84,75.5 C6.473,75.5 0.5,69.527 0.5,62.16 L0.5,13.84 Z"/>
    <mask id="user-created-groups-f" fill="#fff">
      <use xlink:href="#user-created-groups-c"/>
    </mask>
    <rect width="75" height="75" x="1" y="1" fill="url(#user-created-groups-d)" fill-rule="nonzero" stroke="#FFF" stroke-opacity=".01" stroke-width="1.68" filter="url(#user-created-groups-e)" mask="url(#user-created-groups-f)" rx="15"/>
    <rect width="75" height="75" x="1" y="1" fill="url(#user-created-groups-d)" fill-rule="nonzero" stroke="#FFF" stroke-opacity=".01" stroke-width="1.68" mask="url(#user-created-groups-f)" rx="15"/>
    <g fill="url(#user-created-groups-g)" transform="translate(6 13)">
      <path d="M23.0645161,28.1020408 C27.5803554,28.1020408 31.4908734,30.6794688 33.3836148,34.4339832 C33.6961373,34.3883973 34.0159571,34.360428 34.3404014,34.3507554 L34.5967742,34.3469388 L42.983871,34.3469388 C46.1447651,34.3469388 48.8978738,36.0832684 50.3274102,38.6479947 C50.7015199,38.5727468 51.0875422,38.5272355 51.4823226,38.5141455 L51.7204301,38.5102041 L58.3602151,38.5102041 C61.9469168,38.5102041 64.8703951,41.1855464 64.9958079,44.5310946 L65,44.755102 L65,47.877551 C65,49.5422739 63.6140732,50.9031799 61.8684664,50.9950561 L61.6801075,51 L48.4005376,51 C48.2010077,51 48.0055828,50.9834352 47.8157331,50.9516883 C47.6767344,50.9729986 47.5357398,50.987367 47.3929426,50.9945782 L47.1774194,51 L30.4032258,51 C30.1579801,51 29.9176439,50.9790879 29.6839283,50.9389624 C29.4062469,50.9786896 29.1209476,51 28.8306452,51 L28.8306452,51 L5.76612903,51 C2.58214466,51 0,48.4365019 0,45.2755102 L0,45.2755102 L0,39.5510204 C0,33.2272481 5.16428931,28.1020408 11.5322581,28.1020408 L11.5322581,28.1020408 Z M55.0403226,20.8163265 C58.804278,20.8163265 61.8548387,23.6118941 61.8548387,27.0612245 C61.8548387,30.5105548 58.804278,33.3061224 55.0403226,33.3061224 C51.277432,33.3061224 48.2258065,30.5105548 48.2258065,27.0612245 C48.2258065,23.6118941 51.277432,20.8163265 55.0403226,20.8163265 Z M38.7903226,13.5306122 C43.4228831,13.5306122 47.1774194,17.2580357 47.1774194,21.8571429 C47.1774194,26.45625 43.4228831,30.1836735 38.7903226,30.1836735 C34.1590726,30.1836735 30.4032258,26.45625 30.4032258,21.8571429 C30.4032258,17.2580357 34.1590726,13.5306122 38.7903226,13.5306122 Z M17.8225806,0 C24.1923513,0 29.3548387,5.12520727 29.3548387,11.4489796 C29.3548387,17.7727519 24.1923513,22.8979592 17.8225806,22.8979592 C11.4546119,22.8979592 6.29032258,17.7727519 6.29032258,11.4489796 C6.29032258,5.12520727 11.4546119,0 17.8225806,0 Z" filter="url(#user-created-groups-h)"/>
      <path d="M23.0645161,28.1020408 C27.5803554,28.1020408 31.4908734,30.6794688 33.3836148,34.4339832 C33.6961373,34.3883973 34.0159571,34.360428 34.3404014,34.3507554 L34.5967742,34.3469388 L42.983871,34.3469388 C46.1447651,34.3469388 48.8978738,36.0832684 50.3274102,38.6479947 C50.7015199,38.5727468 51.0875422,38.5272355 51.4823226,38.5141455 L51.7204301,38.5102041 L58.3602151,38.5102041 C61.9469168,38.5102041 64.8703951,41.1855464 64.9958079,44.5310946 L65,44.755102 L65,47.877551 C65,49.5422739 63.6140732,50.9031799 61.8684664,50.9950561 L61.6801075,51 L48.4005376,51 C48.2010077,51 48.0055828,50.9834352 47.8157331,50.9516883 C47.6767344,50.9729986 47.5357398,50.987367 47.3929426,50.9945782 L47.1774194,51 L30.4032258,51 C30.1579801,51 29.9176439,50.9790879 29.6839283,50.9389624 C29.4062469,50.9786896 29.1209476,51 28.8306452,51 L28.8306452,51 L5.76612903,51 C2.58214466,51 0,48.4365019 0,45.2755102 L0,45.2755102 L0,39.5510204 C0,33.2272481 5.16428931,28.1020408 11.5322581,28.1020408 L11.5322581,28.1020408 Z M55.0403226,20.8163265 C58.804278,20.8163265 61.8548387,23.6118941 61.8548387,27.0612245 C61.8548387,30.5105548 58.804278,33.3061224 55.0403226,33.3061224 C51.277432,33.3061224 48.2258065,30.5105548 48.2258065,27.0612245 C48.2258065,23.6118941 51.277432,20.8163265 55.0403226,20.8163265 Z M38.7903226,13.5306122 C43.4228831,13.5306122 47.1774194,17.2580357 47.1774194,21.8571429 C47.1774194,26.45625 43.4228831,30.1836735 38.7903226,30.1836735 C34.1590726,30.1836735 30.4032258,26.45625 30.4032258,21.8571429 C30.4032258,17.2580357 34.1590726,13.5306122 38.7903226,13.5306122 Z M17.8225806,0 C24.1923513,0 29.3548387,5.12520727 29.3548387,11.4489796 C29.3548387,17.7727519 24.1923513,22.8979592 17.8225806,22.8979592 C11.4546119,22.8979592 6.29032258,17.7727519 6.29032258,11.4489796 C6.29032258,5.12520727 11.4546119,0 17.8225806,0 Z"/>
    </g>
  </g>
</svg>
